account-alert.svg

<svg fill="currentColor" viewBox="0 0 24 24"><path d="M10 4a4 4 0 0 1 4 4 4 4 0 0 1-4 4 4 4 0 0 1-4-4 4 4 0 0 1 4-4m0 10c4.42 0 8 1.79 8 4v2H2v-2c0-2.21 3.58-4 8-4m10-2V7h2v6h-2m0 4v-2h2v2z"/></svg>

<svg  viewBox="0 0 24 24" fill="currentColor"><path  d="M10 4A4 4 0 0 1 14 8A4 4 0 0 1 10 12A4 4 0 0 1 6 8A4 4 0 0 1 10 4M10 14C14.42 14 18 15.79 18 18V20H2V18C2 15.79 5.58 14 10 14M20 12V7H22V13H20M20 17V15H22V17H20Z"/></svg>
